X:1
T:Title
%%score { ( 1 5 ) | ( 2 3 4 ) }
L:1/8
Q:1/4=72
M:6/8
K:F
V:1 treble nm="Grand Piano"
V:5 treble 
V:2 bass 
V:3 bass 
V:4 bass 
V:1
 [CA]_A=A FGA | [DB]2 F A3 | [Ec]BA G2 A | [A,F]6 | [CA]_A=A [A,F]GA | [DB]2 F [CA]2 A | %6
w: W.~Carroll~Radebaugh * * * * *||||||
 [EG]=Bc d2 G |[M:5/8] [Ec]-[Ec]- [Ec]3 |[M:1/8] [Ec] |[M:3/4] [Be][Bd] [Ac][GB] [FA][EG] | %10
w: ||||
 .[CFA][EGB] [D_A=B] [C=Ac]2 [CAc] | [Be][Bd] [Ac][GB] [EG][DF_A] |[M:7/8] A-A-A- A3 z | %13
w: |||
[M:3/4] [^Fc][Fd] [Fc]A AA | BA [B,DB] [^CF]2 [CG] | [CA][Fc] [Fd] [FA]2 [CG] | [A,CF]6 |] %17
w: ||||
V:2
 z =B,C A,_B,C | z2 ^C =C3 | z DC B,2 C | F,,2 C, .F,,3 | z =B,C z _B,C | z2 ^C F,,2 =C | %6
 z[K:treble] DE F2 F |[M:5/8][K:bass] [C,G,]-[C,G,]- [C,G,]3 |[M:1/8] [C,C] | %9
[M:3/4] [C,C][C,C] [C,C][C,C] [C,C][C,C] | z/ F/F, F, F,2 F, | [C,C][C,C] [C,C][C,C] [C,C]B,, | %12
[M:7/8] A,,[^C,^C][E,C] [A,C]3 [A,CE] |[M:3/4] [D,D][D,A,] [D,A,][^F,CD] [F,CD][F,CD] | %14
 [G,B,D][G,B,D] G,, [B,,B,]2 [B,,B,] | [C,F,][C,A,] [C,B,] [C,C]2 [C,B,] | [F,,F,]6 |] %17
V:3
 [F,,F,]6 | [F,,F,]6 | C,6 | x6 | F,6 | F,6 | [G,,G,]6[K:treble] |[M:5/8][K:bass] x5 |[M:1/8] x | %9
[M:3/4] x6 | .F,2 z2 z2 | x6 |[M:7/8] x7 |[M:3/4] x6 | x6 | x6 | x6 |] %17
V:4
 x6 | x6 | x6 | x6 | z3 F,,3 | x6 | x[K:treble] x5 |[M:5/8][K:bass] x5 |[M:1/8] x |[M:3/4] x6 | %10
 x6 | x6 |[M:7/8] x7 |[M:3/4] x6 | x6 | x6 | x6 |] %17
V:5
 x6 | x6 | x6 | x6 | x6 | x6 | x6 |[M:5/8] x5 |[M:1/8] x |[M:3/4] x6 | x6 | x6 | %12
[M:7/8] [^CE]EE E3 A |[M:3/4] x6 | x6 | x6 | x6 |] %17

